square-opacity.svg

<svg fill="currentColor" viewBox="0 0 24 24"><path d="M19 13v-2h2v2zm2-4V7h-2v2zm0-6h-2v2h2zm-4 12h2v-2h-2zm4 2v-2h-2v2zm-8 0v-2h2v-2h-2v-2h2V9h-2V7h2V5h-2V3H3v18h10v-2h2v-2zm2 4h2v-2h-2zm2-18h-2v2h2zm0 8h2V9h-2zm-2 6h2v-2h-2zm2 2h2v-2h-2zm4 2v-2h-2v2zM15 9h2V7h-2zm0 4h2v-2h-2zm2-8v2h2V5z"/></svg>

<svg  viewBox="0 0 24 24" fill="currentColor"><path  d="M19 13V11H21V13H19M21 9V7H19V9H21M21 3H19V5H21V3M17 15H19V13H17V15M21 17V15H19V17H21M13 17V15H15V13H13V11H15V9H13V7H15V5H13V3H3V21H13V19H15V17H13M15 21H17V19H15V21M17 3H15V5H17V3M17 11H19V9H17V11M15 17H17V15H15V17M17 19H19V17H17V19M21 21V19H19V21H21M15 9H17V7H15V9M15 13H17V11H15V13M17 5V7H19V5H17Z"/></svg>
